X:104
T:Pleasures of the Town THO4.104, The
M:C
L:1/8
Z:vmp. Peter Dunk 2010/11.from a transcription by Fynn Titford-Mock 2007
B:Thompson's Compleat Collection of 200 Favourite Country Dances Volume IV.
Q:1/4=140
K:Bb
(fd)(fd) (Bd)(Bc)|(cd)(Bc) A2F2|(GB)(Ac) (Bd)(ce)|\
(df)(ed) {d2}c4|(fd)(fd) (Bd)(Bc)|
(cd)(Bc) A2F2|(GB)(Ac) (Be)(dc)|d2 Tc2 B4 ::\
(Bd)(fb) (ba)(Tgf)|g2g2Tg2f2|
(gf)(ed) (ed)(cB)|A2TB2c2c2|(Bd)(fb) (ba)(Tgf)|\
g2g2Tg2f2|(gf)(ed) (ed)(cB)|F2TA2 B4:|
